src/components/Icon/assets/clip.svg

<svg width="24" height="24" viewBox="0 0 24 24" fill="none" xmlns="http://www.w3.org/2000/svg">
<path fill-rule="evenodd" clip-rule="evenodd" d="M19.7791 12.7799L13.5351 19.0239C11.5827 20.9764 8.41683 20.9764 6.46436 19.0239C4.51188 17.0714 4.51188 13.9056 6.46436 11.9531L13.5404 4.87714C14.709 3.70773 16.6045 3.70773 17.7729 4.87691C18.9416 6.04561 18.9416 7.94045 17.7731 9.10892L10.6132 16.2679C10.2203 16.6612 9.58318 16.6612 9.19081 16.2684C8.79703 15.8751 8.79703 15.238 9.18991 14.8456L15.5174 8.51814L14.1031 7.10392L7.77614 13.4309C6.60147 14.6041 6.60147 16.509 7.77659 17.6826C8.94932 18.8568 10.8542 18.8568 12.0278 17.6817L19.1873 10.5232C21.1369 8.57361 21.1369 5.41245 19.1874 3.46292C17.238 1.51232 14.0755 1.51232 12.1259 3.46315L5.05014 10.5389C2.31662 13.2724 2.31662 17.7046 5.05014 20.4381C7.78367 23.1717 12.2158 23.1717 14.9494 20.4381L21.1934 14.1941L19.7791 12.7799Z" fill="#65676A"/>
</svg>

<svg xmlns="http://www.w3.org/2000/svg" width="24" height="24" viewBox="0 0 24 24">
    <path fill="#65676A" fill-rule="evenodd" d="M19.78 12.78l-6.245 6.244c-1.952 1.952-5.118 1.952-7.07 0-1.953-1.953-1.953-5.118 0-7.07l7.075-7.077c1.169-1.17 3.064-1.17 4.233 0 1.169 1.169 1.169 3.063 0 4.232l-7.16 7.159c-.393.393-1.03.393-1.422 0-.394-.393-.394-1.03-.001-1.422l6.327-6.328-1.414-1.414-6.327 6.327c-1.175 1.173-1.175 3.078 0 4.252 1.173 1.174 3.078 1.174 4.252-.001l7.16-7.159c1.949-1.95 1.949-5.11 0-7.06-1.95-1.95-5.113-1.95-7.062 0L5.05 10.54c-2.733 2.733-2.733 7.166 0 9.9 2.734 2.733 7.166 2.733 9.9 0l6.243-6.245-1.414-1.414z" opacity=".9"/>
</svg>
